context/brand-context/default/img/icons/collections.svg

<svg id="i-collections" viewBox="0 0 18 18" xmlns="http://www.w3.org/2000/svg"><path d="m15 4c1.1045695 0 2 .8954305 2 2v9c0 1.1045695-.8954305 2-2 2h-8c-1.1045695 0-2-.8954305-2-2h1c0 .5128358.38604019.9355072.88337887.9932723l.11662113.0067277h8c.5128358 0 .9355072-.3860402.9932723-.8833789l.0067277-.1166211v-9c0-.51283584-.3860402-.93550716-.8833789-.99327227l-.1166211-.00672773h-1v-1zm-4-3c1.1045695 0 2 .8954305 2 2v9c0 1.1045695-.8954305 2-2 2h-8c-1.1045695 0-2-.8954305-2-2v-9c0-1.1045695.8954305-2 2-2zm0 1h-8c-.51283584 0-.93550716.38604019-.99327227.88337887l-.00672773.11662113v9c0 .5128358.38604019.9355072.88337887.9932723l.11662113.0067277h8c.5128358 0 .9355072-.3860402.9932723-.8833789l.0067277-.1166211v-9c0-.51283584-.3860402-.93550716-.8833789-.99327227zm-1.5 7c.27614237 0 .5.22385763.5.5s-.22385763.5-.5.5h-5c-.27614237 0-.5-.22385763-.5-.5s.22385763-.5.5-.5zm0-2c.27614237 0 .5.22385763.5.5s-.22385763.5-.5.5h-5c-.27614237 0-.5-.22385763-.5-.5s.22385763-.5.5-.5zm0-2c.27614237 0 .5.22385763.5.5s-.22385763.5-.5.5h-5c-.27614237 0-.5-.22385763-.5-.5s.22385763-.5.5-.5z" fill="currentColor" fill-rule="evenodd"/></svg>

<svg id="i-collections" viewBox="0 0 18 18" xmlns="http://www.w3.org/2000/svg"><path d="M15 4a2 2 0 0 1 2 2v9a2 2 0 0 1-2 2H7a2 2 0 0 1-2-2h1a1 1 0 0 0 .883.993L7 16h8a1 1 0 0 0 .993-.883L16 15V6a1 1 0 0 0-.883-.993L15 5h-1V4zm-4-3a2 2 0 0 1 2 2v9a2 2 0 0 1-2 2H3a2 2 0 0 1-2-2V3a2 2 0 0 1 2-2zm0 1H3a1 1 0 0 0-.993.883L2 3v9a1 1 0 0 0 .883.993L3 13h8a1 1 0 0 0 .993-.883L12 12V3a1 1 0 0 0-.883-.993zM9.5 9a.5.5 0 0 1 0 1h-5a.5.5 0 0 1 0-1zm0-2a.5.5 0 0 1 0 1h-5a.5.5 0 0 1 0-1zm0-2a.5.5 0 0 1 0 1h-5a.5.5 0 0 1 0-1z" fill="currentColor" fill-rule="evenodd"/></svg>
